avogadro/qtplugins/measuretool/measure_dark.svg

<?xml version="1.0" encoding="UTF-8" standalone="no"?>
<svg
   id="svg1"
   width="128"
   height="128"
   version="1.1"
   viewBox="0 0 33.867 33.867"
   xml:space="preserve"
   sodipodi:docname="measure_dark.svg"
   inkscape:version="1.4 (e7c3feb100, 2024-10-09)"
   xmlns:inkscape="http://www.inkscape.org/namespaces/inkscape"
   xmlns:sodipodi="http://sodipodi.sourceforge.net/DTD/sodipodi-0.dtd"
   xmlns="http://www.w3.org/2000/svg"
   xmlns:svg="http://www.w3.org/2000/svg"><sodipodi:namedview
     id="namedview1"
     pagecolor="#ffffff"
     bordercolor="#000000"
     borderopacity="0.25"
     inkscape:showpageshadow="2"
     inkscape:pageopacity="0.0"
     inkscape:pagecheckerboard="0"
     inkscape:deskcolor="#d1d1d1"
     inkscape:zoom="1.6186116"
     inkscape:cx="48.189448"
     inkscape:cy="66.106037"
     inkscape:window-width="1536"
     inkscape:window-height="792"
     inkscape:window-x="0"
     inkscape:window-y="0"
     inkscape:window-maximized="1"
     inkscape:current-layer="layer3" /><defs
     id="defs1"><linearGradient
       id="linearGradient10"><stop
         style="stop-color:#c2c2c2;stop-opacity:1"
         id="stop9"
         offset="0" /><stop
         style="stop-color:#000;stop-opacity:1"
         id="stop10"
         offset="1" /></linearGradient><linearGradient
       id="linearGradient1"><stop
         style="stop-color:#ece69f;stop-opacity:1"
         id="stop7"
         offset="0" /><stop
         style="stop-color:#ffca00;stop-opacity:1"
         id="stop8"
         offset="1" /></linearGradient><linearGradient
       id="linearGradient1-1"><stop
         style="stop-color:#c2c2c2;stop-opacity:1"
         id="stop4"
         offset="0" /><stop
         style="stop-color:#7b7b7b;stop-opacity:1"
         id="stop5"
         offset="1" /></linearGradient><clipPath
       id="clipPath18"
       clipPathUnits="userSpaceOnUse"><path
         id="path18"
         d="M 0,0 H 209 V 195 H 0 Z" /></clipPath><clipPath
       id="clipPath20"
       clipPathUnits="userSpaceOnUse"><path
         id="path20"
         d="M 0,0 H 209 V 195 H 0 Z"
         transform="matrix(1,0,0,-1,195,485.00001)" /></clipPath><marker
       style="overflow:visible"
       id="ArrowWideRounded-3"
       markerHeight=".8"
       markerWidth=".8"
       orient="auto-start-reverse"
       preserveAspectRatio="xMidYMid"
       refX="0"
       refY="0"
       viewBox="0 0 1 1"><path
         style="fill:none;stroke:context-stroke;stroke-width:1;stroke-linecap:round"
         id="path2-7"
         d="M 3,-3 0,0 3,3"
         transform="rotate(180,0.125,0)" /></marker></defs><g
     id="layer3"><g
       id="g1"
       transform="translate(-0.0079484)"><path
         style="color:#000;fill:#00bdeb;stroke-linecap:round;stroke-linejoin:round;-inkscape-stroke:none;paint-order:fill markers stroke"
         id="path6-5-9"
         d="M 1.2402344,15.583984 A 1.08803,1.08803 0 0 0 0.15234375,16.671875 V 32.589844 A 1.08803,1.08803 0 0 0 1.2402344,33.679687 1.08803,1.08803 0 0 0 2.328125,32.589844 V 16.671875 A 1.08803,1.08803 0 0 0 1.2402344,15.583984 Z" /><path
         style="color:#000;fill:#00bdeb;stroke-linecap:round;stroke-linejoin:round;-inkscape-stroke:none;paint-order:fill markers stroke"
         id="path6-0-2-4"
         d="m 32.642578,15.583984 a 1.08803,1.08803 0 0 0 -1.087891,1.087891 v 15.917969 a 1.08803,1.08803 0 0 0 1.087891,1.089843 1.08803,1.08803 0 0 0 1.087891,-1.089843 V 16.671875 a 1.08803,1.08803 0 0 0 -1.087891,-1.087891 z" /><g
         id="path6-3-5-7"><path
           style="color:#000;fill:#00bdeb;stroke-linecap:round;stroke-linejoin:round;-inkscape-stroke:none"
           id="path5"
           d="M 3.9785156,23.542969 A 1.08803,1.08803 0 0 0 2.890625,24.630859 1.08803,1.08803 0 0 0 3.9785156,25.71875 H 29.904297 a 1.08803,1.08803 0 0 0 1.08789,-1.087891 1.08803,1.08803 0 0 0 -1.08789,-1.08789 z" /><g
           id="g3"><path
             style="color:#000;fill:#00bdeb;stroke-linecap:round;-inkscape-stroke:none"
             id="path4"
             d="M 8.1503906,18.792969 2.3125,24.630859 8.1503906,30.46875 a 0.87042499,0.87042499 0 0 0 1.2304688,0 0.87042499,0.87042499 0 0 0 0,-1.230469 L 4.7734375,24.630859 9.3808594,20.023437 a 0.87042499,0.87042499 0 0 0 0,-1.230468 0.87042499,0.87042499 0 0 0 -1.2304688,0 z" /><path
             style="color:#000;fill:#00bdeb;stroke-linecap:round;-inkscape-stroke:none"
             id="path3"
             d="m 25.117187,18.539062 a 0.87042499,0.87042499 0 0 0 -0.615234,0.253907 0.87042499,0.87042499 0 0 0 0,1.230468 l 4.607422,4.607422 -4.607422,4.607422 a 0.87042499,0.87042499 0 0 0 0,1.230469 0.87042499,0.87042499 0 0 0 1.230469,0 l 5.83789,-5.837891 -5.83789,-5.83789 a 0.87042499,0.87042499 0 0 0 -0.615235,-0.253907 z" /></g></g></g><g
       id="text6-4-8"><path
         style="color:#000000;-inkscape-font-specification:'Inter, Normal';display:inline;fill:#00bdeb;stroke-linecap:round;stroke-linejoin:round;-inkscape-stroke:none;paint-order:fill markers stroke"
         id="path6"
         d="M 11.108507,18.482096 15.923221,5.2216053 h 1.957925 l 4.877013,13.2604907 h -1.779932 l -1.326049,-3.702258 h -5.46439 l -1.281551,3.702258 z m 3.595461,-5.179601 h 4.42313 L 18.165935,10.614798 Q 17.925645,9.9473237 17.623056,8.9861606 17.320468,8.0160979 16.893284,6.5743533 16.475,8.0427969 16.163512,9.0217593 15.852024,10.000722 15.638432,10.614798 Z m 2.224915,-8.5347722 q -0.649675,0 -1.183655,-0.3025884 Q 15.220149,4.162546 14.899761,3.6552655 14.588273,3.147985 14.588273,2.5339086 q 0,-0.6229761 0.311488,-1.1213569 0.320388,-0.50728051 0.845467,-0.80096922 0.53398,-0.30258837 1.183655,-0.30258837 0.649675,0 1.174755,0.30258837 0.533979,0.29368871 0.845467,0.80096922 0.320388,0.4983808 0.320388,1.1213569 0,0.6140764 -0.320388,1.1213569 -0.311488,0.5072805 -0.845467,0.8098689 -0.52508,0.3025884 -1.174755,0.3025884 z m 0,-1.1213569 q 0.462782,0 0.78317,-0.3203877 0.329287,-0.3292874 0.329287,-0.7920696 0,-0.4627822 -0.320388,-0.7831699 -0.320387,-0.3292873 -0.792069,-0.3292873 -0.462782,0 -0.79207,0.3292873 -0.320387,0.3203877 -0.320387,0.7831699 0,0.4627822 0.320387,0.7920696 0.329288,0.3203877 0.79207,0.3203877 z" /><path
         style="color:#000000;-inkscape-font-specification:'Inter, Normal';display:inline;fill:#00bdeb;stroke-linecap:round;stroke-linejoin:round;-inkscape-stroke:none;paint-order:fill markers stroke"
         id="path7"
         d="m 16.929687,0.16601562 c -0.455223,0 -0.876369,0.1083282 -1.253906,0.32226563 -0.369768,0.20681962 -0.670763,0.49026507 -0.896484,0.84765625 a 0.14240874,0.14240874 0 0 0 0,0.00195 c -0.221791,0.354866 -0.333984,0.7562632 -0.333984,1.1953125 0,0.4334602 0.112919,0.8372457 0.333984,1.1972657 0.22552,0.3570732 0.525508,0.6447643 0.894531,0.8574218 a 0.14240874,0.14240874 0 0 0 0.002,0.00195 c 0.377537,0.2139375 0.798683,0.3203125 1.253906,0.3203125 0.455224,1e-7 0.872076,-0.107855 1.244141,-0.3222656 v 0.00195 c 0.375348,-0.2126975 0.676447,-0.5010275 0.896484,-0.8593749 0.227445,-0.3601197 0.341797,-0.7631176 0.341797,-1.1972657 0,-0.4397274 -0.115564,-0.8423103 -0.34375,-1.1972656 C 18.848747,0.97919766 18.547896,0.69455035 18.173828,0.48828125 17.801763,0.2738707 17.384911,0.16601562 16.929687,0.16601562 Z m 0,0.28515626 c 0.41101,0 0.775476,0.0941629 1.103516,0.28320312 a 0.14240874,0.14240874 0 0 0 0.002,0.001953 c 0.335896,0.18474301 0.597884,0.4322905 0.792969,0.75 a 0.14240874,0.14240874 0 0 0 0.002,0.00391 c 0.198998,0.3095517 0.296875,0.6520622 0.296875,1.0429687 0,0.3846196 -0.09909,0.7306213 -0.298828,1.046875 C 18.632846,3.898104 18.369826,4.1510437 18.033203,4.3417969 17.705163,4.5308371 17.340697,4.625 16.929687,4.625 16.518678,4.625 16.150842,4.5313102 15.816406,4.3417969 15.485748,4.151248 15.223047,3.8987982 15.021484,3.5800781 14.827232,3.2637248 14.730469,2.9185106 14.730469,2.5332031 c 0,-0.3915846 0.09749,-0.7352807 0.291015,-1.0449219 0.201361,-0.3183872 0.463061,-0.56742772 0.792969,-0.75195308 a 0.14240874,0.14240874 0 0 0 0.002,0 c 0.334436,-0.18951333 0.702272,-0.28515624 1.113281,-0.28515624 z m 0,0.82812502 c -0.342294,0 -0.651421,0.1279846 -0.894531,0.3710937 -0.237831,0.2378313 -0.361328,0.5414312 -0.361328,0.8828125 0,0.3413813 0.124487,0.649157 0.361328,0.8925782 a 0.14240874,0.14240874 0 0 0 0.002,0.00195 c 0.243422,0.2368421 0.551197,0.3613281 0.892578,0.3613281 0.341382,0 0.644982,-0.12545 0.882813,-0.3632812 0.243109,-0.2431094 0.371094,-0.550284 0.371094,-0.8925782 0,-0.3407345 -0.124377,-0.6432261 -0.361328,-0.8808594 C 17.584318,1.4077865 17.277278,1.2792969 16.929687,1.2792969 Z m 0,0.2851562 c 0.281319,0 0.500219,0.090664 0.689454,0.2851563 a 0.14240874,0.14240874 0 0 0 0.002,0.00195 c 0.189352,0.1893519 0.277343,0.4059797 0.277343,0.6816406 0,0.2747482 -0.09117,0.4954662 -0.287109,0.6914063 -0.189352,0.1893519 -0.40598,0.2792968 -0.681641,0.2792969 -0.274723,0 -0.496267,-0.088332 -0.691406,-0.2773438 l -0.002,-0.00195 C 16.047317,3.0294707 15.958984,2.8079269 15.958984,2.5332031 c 0,-0.275661 0.08995,-0.4922887 0.279297,-0.6816406 0.195941,-0.1959402 0.416659,-0.2871094 0.691406,-0.2871094 z m -1.005859,3.515625 a 0.14240874,0.14240874 0 0 0 -0.134765,0.09375 L 10.974609,18.433594 A 0.14240874,0.14240874 0 0 0 11.109375,18.625 h 1.796875 a 0.14240874,0.14240874 0 0 0 0.134766,-0.0957 l 1.248047,-3.607422 h 5.263671 L 20.84375,18.5293 a 0.14240874,0.14240874 0 0 0 0.134766,0.0957 h 1.779296 a 0.14240874,0.14240874 0 0 0 0.134766,-0.191406 L 18.015625,5.171875 A 0.14240874,0.14240874 0 0 0 17.880859,5.080078 Z m 0.09961,0.2832031 h 1.757813 L 22.554688,18.339844 H 21.078126 L 19.78711,14.732422 a 0.14240874,0.14240874 0 0 0 -0.134765,-0.0957 H 14.1875 a 0.14240874,0.14240874 0 0 0 -0.134766,0.0957 l -1.248046,3.607422 H 11.3125 Z m 0.869141,1.0683594 A 0.14240874,0.14240874 0 0 0 16.75586,6.5351562 C 16.477272,7.5131794 16.23435,8.3279283 16.027345,8.9785156 15.819929,9.630393 15.645644,10.160866 15.503907,10.568359 l -0.933593,2.6875 a 0.14240874,0.14240874 0 0 0 0.132812,0.189454 h 4.423828 a 0.14240874,0.14240874 0 0 0 0.134766,-0.191407 l -0.960938,-2.6875 C 18.141514,10.123996 17.961085,9.5828416 17.759766,8.9433594 17.55834,8.2976108 17.313956,7.4939253 17.029297,6.5332031 A 0.14240874,0.14240874 0 0 0 16.892579,6.4316406 Z m 0,0.6386719 c 0.218553,0.7323985 0.429787,1.4333368 0.59375,1.9589844 0.202133,0.6420672 0.383803,1.1852581 0.544922,1.6328121 l 0.892578,2.498047 h -4.019531 l 0.869141,-2.498047 c 0.143051,-0.411273 0.317489,-0.944251 0.52539,-1.5976559 0.169459,-0.532586 0.377462,-1.2464257 0.59375,-1.9941406 z" /></g></g></svg>

<svg height="128" viewBox="0 0 33.867 33.867" width="128" xmlns="http://www.w3.org/2000/svg"><g fill="#00bdeb" stroke-linecap="round"><g transform="translate(-.008)"><g stroke-linejoin="round"><path d="m1.24 15.584a1.088 1.088 0 0 0 -1.088 1.088v15.918a1.088 1.088 0 0 0 1.088 1.09 1.088 1.088 0 0 0 1.088-1.09v-15.918a1.088 1.088 0 0 0 -1.088-1.088z"/><path d="m32.643 15.584a1.088 1.088 0 0 0 -1.088 1.088v15.918a1.088 1.088 0 0 0 1.088 1.09 1.088 1.088 0 0 0 1.088-1.09v-15.918a1.088 1.088 0 0 0 -1.088-1.088z"/><path d="m3.979 23.543a1.088 1.088 0 0 0 -1.088 1.088 1.088 1.088 0 0 0 1.088 1.088h25.926a1.088 1.088 0 0 0 1.088-1.088 1.088 1.088 0 0 0 -1.088-1.088z"/></g><path d="m8.15 18.793-5.838 5.838 5.838 5.838a.87.87 0 0 0 1.231 0 .87.87 0 0 0 0-1.231l-4.607-4.607 4.607-4.607a.87.87 0 0 0 0-1.231.87.87 0 0 0 -1.231 0z"/><path d="m25.117 18.539a.87.87 0 0 0 -.615.254.87.87 0 0 0 0 1.231l4.607 4.607-4.607 4.607a.87.87 0 0 0 0 1.231.87.87 0 0 0 1.231 0l5.838-5.838-5.838-5.838a.87.87 0 0 0 -.615-.254z"/></g><g stroke-linejoin="round"><path d="m11.109 18.482 4.815-13.26h1.958l4.877 13.26h-1.78l-1.326-3.702h-5.464l-1.282 3.702zm3.596-5.18h4.423l-.961-2.688q-.24-.667-.543-1.629-.303-.97-.73-2.412-.418 1.468-.73 2.447-.311.979-.525 1.593zm2.225-8.535q-.65 0-1.184-.303-.525-.303-.845-.81-.311-.507-.311-1.121 0-.623.311-1.121.32-.507.845-.801.534-.303 1.184-.303t1.175.303q.534.294.845.801.32.498.32 1.121 0 .614-.32 1.121-.311.507-.845.81-.525.303-1.175.303zm0-1.121q.463 0 .783-.32.329-.329.329-.792t-.32-.783q-.32-.329-.792-.329-.463 0-.792.329-.32.32-.32.783t.32.792q.329.32.792.32z"/><path d="m16.93.166c-.455 0-.876.108-1.254.322-.37.207-.671.49-.896.848a.142.142 0 0 0 0 .002c-.222.355-.334.756-.334 1.195 0 .433.113.837.334 1.197.226.357.526.645.895.857a.142.142 0 0 0 .002.002c.378.214.799.32 1.254.32s.872-.108 1.244-.322v.002c.375-.213.676-.501.896-.859.227-.36.342-.763.342-1.197 0-.44-.116-.842-.344-1.197-.22-.357-.521-.641-.895-.848-.372-.214-.789-.322-1.244-.322zm0 .285c.411 0 .775.094 1.104.283a.142.142 0 0 0 .002.002c.336.185.598.432.793.75a.142.142 0 0 0 .002.004c.199.31.297.652.297 1.043 0 .385-.099.731-.299 1.047-.195.318-.458.571-.795.762-.328.189-.693.283-1.104.283s-.779-.094-1.113-.283c-.331-.191-.593-.443-.795-.762-.194-.316-.291-.662-.291-1.047 0-.392.097-.735.291-1.045.201-.318.463-.567.793-.752a.142.142 0 0 0 .002 0c.334-.19.702-.285 1.113-.285zm0 .828c-.342 0-.651.128-.895.371-.238.238-.361.541-.361.883s.124.649.361.893a.142.142 0 0 0 .002.002c.243.237.551.361.893.361.341 0 .645-.125.883-.363.243-.243.371-.55.371-.893 0-.341-.124-.643-.361-.881-.238-.245-.545-.373-.893-.373zm0 .285c.281 0 .5.091.689.285a.142.142 0 0 0 .002.002c.189.189.277.406.277.682 0 .275-.091.495-.287.691-.189.189-.406.279-.682.279-.275 0-.496-.088-.691-.277l-.002-.002c-.189-.195-.277-.417-.277-.691 0-.276.09-.492.279-.682.196-.196.417-.287.691-.287zm-1.006 3.516a.142.142 0 0 0 -.135.094l-4.815 13.26a.142.142 0 0 0 .135.191h1.797a.142.142 0 0 0 .135-.096l1.248-3.607h5.264l1.291 3.607a.142.142 0 0 0 .135.096h1.779a.142.142 0 0 0 .135-.191l-4.877-13.262a.142.142 0 0 0 -.135-.092zm.1.283h1.758l4.773 12.977h-1.477l-1.291-3.607a.142.142 0 0 0 -.135-.096h-5.465a.142.142 0 0 0 -.135.096l-1.248 3.607h-1.492zm.869 1.068a.142.142 0 0 0 -.137.104c-.279.978-.522 1.793-.729 2.443-.207.652-.382 1.182-.523 1.59l-.934 2.688a.142.142 0 0 0 .133.189h4.424a.142.142 0 0 0 .135-.191l-.961-2.688c-.159-.442-.34-.984-.541-1.623-.201-.646-.446-1.449-.73-2.41a.142.142 0 0 0 -.137-.102zm0 .639c.219.732.43 1.433.594 1.959.202.642.384 1.185.545 1.633l.893 2.498h-4.02l.869-2.498c.143-.411.317-.944.525-1.598.169-.533.377-1.246.594-1.994z"/></g></g></svg>
